X: 2
T: My Darling Asleep
R: jig
M: 6/8
L: 1/8
K: Dmaj
e|:fdd cAA|BAG A2 G|FGA def|~g3 eag||fdd cAA|BAG A2 G|FGA def|1gec d2:|2 gec d2 A|||:FAA Bcd|FAA BAG|FGA def|ge/f/g eag||fdd cAA|BAG A2 G|FGA def|1 gec d2 A:|2 gec d2 e||


Tune 76	Setting 23001

